X:1
T:My shepherd’s mighty aid
T:My shepherd’s mighty aid - Pastoral (Thomas Clark)
C:Thomas Clark
Z:p38, A Second Set of Psalm
Z:and Hymn Tunes,
Z:London: (1806)
%%score [ 1 2 3 4 ]
L:1/8
M:4/4
K:Eb
V:1 treble nm="SOPRANO" snm="S."
V:2 treble nm="ALTO" snm="A."
V:3 treble-8 transpose=-12 nm="TENOR" snm="T."
V:4 bass nm="BASS" snm="B."
V:1
 E2 | G2 B2 (BA)(GF) | G4 z2 B2 | c2 (cd/e/) B2 (AG) | (G2 F2) z2 B2 | e3 d e2 B2 | %6
w: Af-|flic- tion’s deep- * est _|gloom Shall|but thy _ _ love dis- *|play; _ Thou|wilt the vale of|
w: My|shep- herd’s migh- * ty _|aid, His|dear re- * * deem- ing _|love, _ His|all- pro- tect- ing|
w: In|er- ror’s maze _ my _|soul Shall|wan- der _ _ now no _|more; _ His|spi- rit shall, with|
 (AG)(FE) B2 A2 | G4 F4 | E4 |: z2 G2 | c2 =B2 (cd/e/) (dc) | (c2 =B2) z2 c2 | g3 f (ed)(c=B) | %13
w: death _ il- * lume With|li- ving|ray;|My|fail- ing flesh _ _ thy _|rod _ Shall|thank- ful- ly _ a- *|
w: pow’r _ dis- * play'd, I|joy to|prove:|Led|on- ward by _ _ my _|guide, _ I|view the ver- * dant _|
w: sweet _ con- * trol, The|lost re-|store;|My|wil- ling steps _ _ shall _|lead _ In|paths of right- * eous- *|
 c4 z2 e2 | B3 A (G c2) B | (B A2) G (GF) z G | (AB)(cd) e2 (dc) | (BA)(GA) B2 A2 | G4 F4 | %19
w: dore; My|heart shall vin- * di-|cate _ my God, _ my|heart _ shall _ vin- di- *|cate _ my _ God For|e- ver-|
w: scene, Where|lim- pid wa- * ters|gent- * ly glide, _ where|lim- * pid _ wa- ters _|gent- * ly _ glide Through|pas- tures|
w: ness; His|pow’r de- fend; _ his|boun- * ty feed; _ his|pow’r _ de- * fend; his _|boun- * ty _ feed; His|mer- cy|
 !fermata!E4 :| %20
w: more.|
w: green.|
w: bless.|
V:2
 E2 | E2 E2 F2 (ED) | E4 z2 E2 | E2 E2 E2 E2 | (E2 D2) z2 D2 | E3 F G2 F2 | E2 E2 E2 E2 | E4 D4 | %8
w: Af-|flic- tion’s deep- est _|gloom Shall|but thy love dis-|play; _ Thou|wilt the vale of|death il- lume With|li- ving|
w: My|shep- herd’s migh- ty _|aid, His|dear re- deem- ing|love, _ His|all- pro- tect- ing|pow’r dis- play'd, I|joy to|
w: In|er- ror’s maze my _|soul Shall|wan- der now no|more; _ His|spi- rit shall, with|sweet con- trol, The|lost re-|
 E4 |: z2 E2 | G2 G2 G2 A2 | G4 z2 G2 | G3 A G2 G2 | G4 z2 G2 | F3 F (E A2) G | F2 E2 (ED) z E | %16
w: ray;|My|fail- ing flesh thy|rod Shall|thank- ful- ly a-|dore; My|heart shall vin- * di-|cate my God, _ my|
w: prove:|Led|on- ward by my|guide, I|view the ver- dant|scene, Where|lim- pid wa- * ters|gent- ly glide, _ where|
w: store;|My|wil- ling steps shall|lead In|paths of right- eous-|ness; His|pow’r de- fend; _ his|boun- ty feed; _ his|
 E2 (EF) G2 A2 | E2 E2 E2 E2 | E4 D4 | !fermata!E4 :| %20
w: heart shall _ vin- di-|cate my God For|e- ver-|more.|
w: lim- pid _ wa- ters|gent- ly glide Through|pas- tures|green.|
w: pow’r de- * fend; his|boun- ty feed; His|mer- cy|bless.|
V:3
 B2 | B2 G2 B2 B2 | B4 z2 G2 | A2 F2 B2 B2 | B4 z2 B2 | B3 B B2 B2 | B2 B2 e2 c2 | B4 B4 | G4 |: %9
w: Af-|flic- tion’s deep- est|gloom Shall|but thy love dis-|play; Thou|wilt the vale of|death il- lume With|li- ving|ray;|
w: My|shep- herd’s migh- ty|aid, His|dear re- deem- ing|love, His|all- pro- tect- ing|pow’r dis- play'd, I|joy to|prove:|
w: In|er- ror’s maze my|soul Shall|wan- der now no|more; His|spi- rit shall, with|sweet con- trol, The|lost re-|store;|
 z2 c2 | e2 d2 e2 (fe) | (e2 d2) z2 e2 | c3 c (cf)(ed) | e4 z2 e2 | f2 d2 e2 e2 | B2 B2 B2 z B | %16
w: My|fail- ing flesh thy _|rod _ Shall|thank- ful- ly _ a- *|dore; My|heart shall vin- di-|cate my God, my|
w: Led|on- ward by my _|guide, _ I|view the ver- * dant _|scene, Where|lim- pid wa- ters|gent- ly glide, where|
w: My|wil- ling steps shall _|lead _ In|paths of right- * eous- *|ness; His|pow’r de- fend; his|boun- ty feed; his|
 (cB) A2 B2 A2 | (GA)(BA) G2 c2 | B4 B4 | !fermata!G4 :| %20
w: heart _ shall vin- di-|cate _ my _ God For|e- ver-|more.|
w: lim- * pid wa- ters|gent- * ly _ glide Through|pas- tures|green.|
w: pow’r _ de- fend; his|boun- * ty _ feed; His|mer- cy|bless.|
V:4
 E,2 | E,2 E,2"^6" D,2 B,,2 | E,4 z2 E,2 | A,2"^65" A,2"^6" G,2 E,2 |"^64""^53" B,,4 z2 B,2 | %5
w: Af-|flic- tion’s deep- est|gloom Shall|but thy love dis-|play; Thou|
w: My|shep- herd’s migh- ty|aid, His|dear re- deem- ing|love, His|
w: In|er- ror’s maze my|soul Shall|wan- der now no|more; His|
"^6" G,3 B, E,2"^6" D,2 | E,2 E,2"^6" G,2 A,2 |"^64" B,4"^53" B,,4 | E,4 |: z2 C,2 | %10
w: wilt the vale of|death il- lume With|li- ving|ray;|My|
w: all- pro- tect- ing|pow’r dis- play'd, I|joy to|prove:|Led|
w: spi- rit shall, with|sweet con- trol, The|lost re-|store;|My|
 C,2"^§" G,2 C2"^86""^75" F,2 |"^64""^5§" G,4 z2 C,2 |"^6" E,3 F,"^86""^75" G,2"^64""^5§" G,,2 | %13
w: fail- ing flesh thy|rod Shall|thank- ful- ly a-|
w: on- ward by my|guide, I|view the ver- dant|
w: wil- ling steps shall|lead In|paths of right- eous-|
 C,4 z2 C,2 |"^6" D,2 B,,2"^53""^64" E,2"^64""^53" E,2 |"^6" D,2 E,2"^64""^53" B,,2 z E, | %16
w: dore; My|heart shall vin- di-|cate my God, my|
w: scene, Where|lim- pid wa- ters|gent- ly glide, where|
w: ness; His|pow’r de- fend; his|boun- ty feed; his|
"^Original order of parts is Tenor - [Alto] - Air - [Bass], with Tenor & Alto in treble clef an octave above sounding pitch. Verses 2-5of the text are printed after the music in the source and have been underlaid editorially, and grace notes have been expanded." (A,"^6"G,)"^7""^6" F,2 E,2 F,2 | %17
w: heart _ shall vin- di-|
w: lim- * pid wa- ters|
w: pow’r _ de- fend; his|
"^6" (G,F,)(E,F,)"^6" G,2 A,2 |"^64" B,4"^53" B,,4 | !fermata!E,4 :| %20
w: cate _ my _ God For|e- ver-|more.|
w: gent- * ly _ glide Through|pas- tures|green.|
w: boun- * ty _ feed; His|mer- cy|bless.|

